fonts/kmap-icons/SVG_edits/subjects.svg

<?xml version="1.0" encoding="utf-8"?>
<!-- Generated by IcoMoon.io -->
<!DOCTYPE svg PUBLIC "-//W3C//DTD SVG 1.1//EN" "http://www.w3.org/Graphics/SVG/1.1/DTD/svg11.dtd">
<svg version="1.1" xmlns="http://www.w3.org/2000/svg" xmlns:xlink="http://www.w3.org/1999/xlink" width="32" height="32" viewBox="0 0 32 32">
<g>
</g>
	<path d="M15 10.845h2v10.155h-2v-10.155z" fill="#000000" />
	<path d="M8 14h16v2h-16v-2z" fill="#000000" />
	<path d="M8 14h2v4.063h-2v-4.063z" fill="#000000" />
	<path d="M22 14h2v3.867h-2v-3.867z" fill="#000000" />
	<path d="M16 6c-1.657 0-3 1.343-3 3s1.343 3 3 3c1.656 0 3-1.343 3-3 0-1.657-1.344-3-3-3zM16 10c-0.552 0-1-0.447-1-1 0-0.552 0.448-1 1-1s1 0.448 1 1c0 0.553-0.448 1-1 1z" fill="#000000" />
	<path d="M23 17c-1.656 0-3 1.344-3 3 0 1.657 1.344 3 3 3s3-1.343 3-3c0-1.656-1.344-3-3-3zM23 21c-0.553 0-1-0.447-1-1s0.447-1 1-1 1 0.447 1 1-0.447 1-1 1z" fill="#000000" />
	<path d="M16 20c-1.657 0-3 1.344-3 3 0 1.657 1.343 3 3 3 1.656 0 3-1.343 3-3 0-1.656-1.344-3-3-3zM16 24c-0.552 0-1-0.447-1-1s0.448-1 1-1 1 0.447 1 1-0.448 1-1 1z" fill="#000000" />
	<path d="M9 17c-1.657 0-3 1.344-3 3 0 1.657 1.343 3 3 3s3-1.343 3-3c0-1.656-1.343-3-3-3zM9 21c-0.552 0-1-0.447-1-1s0.448-1 1-1 1 0.447 1 1-0.448 1-1 1z" fill="#000000" />
</svg>

<?xml version="1.0" encoding="utf-8"?>
<!-- Generator: Adobe Illustrator 14.0.0, SVG Export Plug-In . SVG Version: 6.00 Build 43363)  -->
<!DOCTYPE svg PUBLIC "-//W3C//DTD SVG 1.1//EN" "http://www.w3.org/Graphics/SVG/1.1/DTD/svg11.dtd">
<svg version="1.1" id="Layer_1" xmlns="http://www.w3.org/2000/svg" xmlns:xlink="http://www.w3.org/1999/xlink" x="0px" y="0px"
	 width="32px" height="32px" viewBox="0 0 32 32" enable-background="new 0 0 32 32" xml:space="preserve">
<path fill-rule="evenodd" clip-rule="evenodd" fill="#231F20" d="M15,10.845h2V21h-2V10.845z"/>
<path fill-rule="evenodd" clip-rule="evenodd" fill="#231F20" d="M8,14h16v2H8V14z"/>
<path fill-rule="evenodd" clip-rule="evenodd" fill="#231F20" d="M8,14h2v4.063H8V14z"/>
<path fill-rule="evenodd" clip-rule="evenodd" fill="#231F20" d="M22,14h2v3.867h-2V14z"/>
<path fill-rule="evenodd" clip-rule="evenodd" fill="#231F20" d="M16,6c-1.657,0-3,1.343-3,3c0,1.657,1.343,3,3,3
	c1.656,0,3-1.343,3-3C19,7.343,17.656,6,16,6z M16,10c-0.552,0-1-0.447-1-1c0-0.552,0.448-1,1-1s1,0.448,1,1
	C17,9.553,16.552,10,16,10z"/>
<path fill-rule="evenodd" clip-rule="evenodd" fill="#231F20" d="M23,17c-1.656,0-3,1.344-3,3c0,1.657,1.344,3,3,3s3-1.343,3-3
	C26,18.344,24.656,17,23,17z M23,21c-0.553,0-1-0.447-1-1s0.447-1,1-1s1,0.447,1,1S23.553,21,23,21z"/>
<path fill-rule="evenodd" clip-rule="evenodd" fill="#231F20" d="M16,20c-1.657,0-3,1.344-3,3c0,1.657,1.343,3,3,3
	c1.656,0,3-1.343,3-3C19,21.344,17.656,20,16,20z M16,24c-0.552,0-1-0.447-1-1s0.448-1,1-1s1,0.447,1,1S16.552,24,16,24z"/>
<path fill-rule="evenodd" clip-rule="evenodd" fill="#231F20" d="M9,17c-1.657,0-3,1.344-3,3c0,1.657,1.343,3,3,3s3-1.343,3-3
	C12,18.344,10.657,17,9,17z M9,21c-0.552,0-1-0.447-1-1s0.448-1,1-1s1,0.447,1,1S9.552,21,9,21z"/>
</svg>
